X:586
T:Miss Sitwell
R:Slow Strathspey
C:Nathaniel Gow
B:The Athole Collection
M:C
L:1/8
Q:1/4=140
K:B_
D/C/|B,>FD>F G<C CD/C/|B,>FD>B F>dB>f|d>c B/c/d/B/ c<C CD/C/|
B,>FD>B ~F2 F/E/D/C/|B,>FD>F G<C CD/C/|B,>FD>B F>dB>f|
d>c B/c/d/B/ c<C CD/E/|F<B D>F ~B2B||d/e/|f<b d>f g<c cd/e/|
f<b d>e f<g d>b|f<d b>f g<c cd/e/|f>bd>e f2 fd/e/|f>bd>f g<c cd/e/|
fg/a/ b>a g>fe>d|c>Bd>B c<C CD/E/|F>B G/F/E/D/ ~F2 F>B||

